1-js/99-js-misc/01-proxy/proxy.svg

<?xml version="1.0" encoding="UTF-8"?>
<svg width="292px" height="180px" viewBox="0 0 292 180" version="1.1" xmlns="http://www.w3.org/2000/svg" xmlns:xlink="http://www.w3.org/1999/xlink">
    <!-- Generator: sketchtool 61.2 (101010) - https://sketch.com -->
    <title>proxy.svg</title>
    <desc>Created with sketchtool.</desc>
    <g id="misc" stroke="none" stroke-width="1" fill="none" fill-rule="evenodd">
        <g id="proxy.svg">
            <rect id="Rectangle-2" stroke="#BCA68E" stroke-width="2" fill="#FFF9EB" x="191" y="81" width="73" height="26"></rect>
            <text id="test:-5" font-family="PTMono-Regular, PT Mono" font-size="14" font-weight="normal" fill="#8A704D">
                <tspan x="198" y="98">test: 5</tspan>
            </text>
            <text id="proxy" font-family="PTMono-Regular, PT Mono" font-size="14" font-weight="normal" fill="#000000">
                <tspan x="186" y="17">proxy</tspan>
            </text>
            <text id="target" font-family="PTMono-Regular, PT Mono" font-size="14" font-weight="normal" fill="#000000">
                <tspan x="198" y="74">target</tspan>
            </text>
            <path id="Line" d="M116.536765,72.5 L135.536765,82 L116.536765,91.5 L116.536,83.5 L4.46323529,83.5 L4.46323529,80.5 L116.536,80.5 L116.536765,72.5 Z" fill="#EE6B47" fill-rule="nonzero"></path>
            <path id="Line-Copy-4" d="M22,98.5 L22,106.5 L136.573529,106.5 L136.573529,109.5 L22,109.5 L22,117.5 L3,108 L22,98.5 Z" fill="#EE6B47" fill-rule="nonzero"></path>
            <path id="Line-Copy" d="M176.478261,82 L190.478261,89 L176.478261,96 L176.478261,82 Z M146,88 L146,90 L142,90 L142,88 L146,88 Z M153,88 L153,90 L149,90 L149,88 L153,88 Z M160,88 L160,90 L156,90 L156,88 L160,88 Z M167,88 L167,90 L163,90 L163,88 L167,88 Z M174,88 L174,90 L170,90 L170,88 L174,88 Z" fill="#EE6B47" fill-rule="nonzero"></path>
            <path id="Line-Copy-2" d="M157,93 L157,99 L159,99 L159,101 L157,101 L157,107 L143,100 L157,93 Z M166,99 L166,101 L162,101 L162,99 L166,99 Z M173,99 L173,101 L169,101 L169,99 L173,99 Z M180,99 L180,101 L176,101 L176,99 L180,99 Z M187,99 L187,101 L183,101 L183,99 L187,99 Z" fill="#EE6B47" fill-rule="nonzero"></path>
            <text id="get-proxy.test" font-family="PTMono-Regular, PT Mono" font-size="14" font-weight="normal" fill="#000000">
                <tspan x="7" y="70">get proxy.test</tspan>
            </text>
            <text id="5" font-family="PTMono-Regular, PT Mono" font-size="14" font-weight="normal" fill="#000000">
                <tspan x="71" y="128">5</tspan>
            </text>
            <path d="M207,160 C243.450793,160 273,130.450793 273,94 C273,57.5492065 243.450793,28 207,28 C170.549207,28 141,57.5492065 141,94 C141,130.450793 170.549207,160 207,160 Z" id="Oval" stroke="#BCA68E" stroke-width="2" stroke-dasharray="5"></path>
        </g>
    </g>
</svg>

<svg xmlns="http://www.w3.org/2000/svg" width="292" height="180" viewBox="0 0 292 180"><defs><style>@import url(https://fonts.googleapis.com/css?family=Open+Sans:bold,italic,bolditalic%7CPT+Mono);@font-face{font-family:&apos;PT Mono&apos;;font-weight:700;font-style:normal;src:local(&apos;PT MonoBold&apos;),url(/font/PTMonoBold.woff2) format(&apos;woff2&apos;),url(/font/PTMonoBold.woff) format(&apos;woff&apos;),url(/font/PTMonoBold.ttf) format(&apos;truetype&apos;)}</style></defs><g id="misc" fill="none" fill-rule="evenodd" stroke="none" stroke-width="1"><g id="proxy.svg"><path id="Rectangle-2" fill="#FFF9EB" stroke="#BCA68E" stroke-width="2" d="M191 81h73v26h-73z"/><text id="test:-5" fill="#8A704D" font-family="PTMono-Regular, PT Mono" font-size="14" font-weight="normal"><tspan x="198" y="98">test: 5</tspan></text><text id="proxy" fill="#000" font-family="PTMono-Regular, PT Mono" font-size="14" font-weight="normal"><tspan x="186" y="17">proxy</tspan></text><text id="target" fill="#000" font-family="PTMono-Regular, PT Mono" font-size="14" font-weight="normal"><tspan x="198" y="74">target</tspan></text><path id="Line" fill="#EE6B47" fill-rule="nonzero" d="M116.537 72.5l19 9.5-19 9.5-.001-8H4.463v-3h112.073v-8z"/><path id="Line-Copy-4" fill="#EE6B47" fill-rule="nonzero" d="M22 98.5v8h114.574v3H22v8L3 108l19-9.5z"/><path id="Line-Copy" fill="#EE6B47" fill-rule="nonzero" d="M176.478 82l14 7-14 7V82zM146 88v2h-4v-2h4zm7 0v2h-4v-2h4zm7 0v2h-4v-2h4zm7 0v2h-4v-2h4zm7 0v2h-4v-2h4z"/><path id="Line-Copy-2" fill="#EE6B47" fill-rule="nonzero" d="M157 93v6h2v2h-2v6l-14-7 14-7zm9 6v2h-4v-2h4zm7 0v2h-4v-2h4zm7 0v2h-4v-2h4zm7 0v2h-4v-2h4z"/><text id="get-proxy.test" fill="#000" font-family="PTMono-Regular, PT Mono" font-size="14" font-weight="normal"><tspan x="7" y="70">get proxy.test</tspan></text><text id="5" fill="#000" font-family="PTMono-Regular, PT Mono" font-size="14" font-weight="normal"><tspan x="71" y="128">5</tspan></text><path id="Oval" stroke="#BCA68E" stroke-dasharray="5" stroke-width="2" d="M207 160c36.45 0 66-29.55 66-66s-29.55-66-66-66-66 29.55-66 66 29.55 66 66 66z"/></g></g></svg>
